Origami/32x32/apps/mcomix.svg

<svg width="32" height="32" version="1.1" viewBox="0 0 32 32" xmlns="http://www.w3.org/2000/svg">
 <path d="m16 5.9999998a11 11 0 0 1 0.84421 0.035386 11 11 0 0 0 -0.84421 -0.035386za11 11 0 0 0 -9.6717601 5.7818252 11 11 0 0 1 9.6717601 -5.7818252zm1.372473 0.099839a11 11 0 0 1 0.576287 0.078355 11 11 0 0 0 -0.576287 -0.078355zm1.02114 0.1781939a11 11 0 0 1 0.635684 0.1516544 11 11 0 0 0 -0.635684 -0.1516544zm1.022403 0.2805606a11 11 0 0 1 0.655906 0.2287457 11 11 0 0 0 -0.655906 -0.2287455zm0.974379 0.3702896a11 11 0 0 1 0.698874 0.3247932 11 11 0 0 0 -0.698874 -0.3247932zm0.903608 0.4423254a11 11 0 0 1 0.743107 0.439798 11 11 0 0 0 -0.743107 -0.4397978zm0.930148 0.5737589a11 11 0 0 1 0.706456 0.5206805 11 11 0 0 0 -0.706456 -0.5206805zm0.832834 0.6318937a11 11 0 0 1 0.693819 0.6255746 11 11 0 0 0 -0.693819 -0.6255746zm0.792394 0.7317324a11 11 0 0 1 0.645796 0.7127757 11 11 0 0 0 -0.645796 -0.7127757zm-13.349379 0.5737595a5.5000001 5.5000001 0 0 0 -4.1995634 1.9474962 11 11 0 0 0 -0.0012618 0.001261 11 11 0 0 0 -1.2991748 5.168858 11 11 0 0 0 11 11.000032 11 11 0 0 0 11 -11 11 11 0 0 0 -1.281479 -5.138557 5.5000001 5.5000001 0 0 0 -0.001295 -0.002523 5.5000001 5.5000001 0 0 0 -4.217225 -1.9765672 5.5000001 5.5000001 0 0 0 -5.500001 5.5000002 5.5000001 5.5000001 0 0 0 0.01643 0.323529h-0.02781a5.5000001 5.5000001 0 0 0 0.01138 -0.323529 5.5000001 5.5000001 0 0 0 -5.5 -5.5000002zm15.217257 1.9765632a11 11 0 0 0 -0.551011 -0.928884 11 11 0 0 1 0.551011 0.928884zm-1.165212-1.762983a11 11 0 0 1 0.604091 0.81767 11 11 0 0 0 -0.604091 -0.81767z" style="opacity:.2"/>
 <path d="M 25.5,9.0000016 A 6.5,6.5 0 0 0 19,15.5 6.5,6.5 0 0 0 25.5,22 6.5,6.5 0 0 0 32,15.5 6.5,6.5 0 0 0 25.5,9.0000016 Z" style="opacity:.2"/>
 <path d="M 6.5,9.0000016 A 6.5,6.5 0 0 0 0,15.5 6.5,6.5 0 0 0 6.5,22 6.5,6.5 0 0 0 13,15.5 6.5,6.5 0 0 0 6.5,9.0000016 Z" style="opacity:.2"/>
 <path d="M 6.5,8.0000016 A 6.5,6.5 0 0 0 0,14.5 6.5,6.5 0 0 0 6.5,21 6.5,6.5 0 0 0 13,14.5 6.5,6.5 0 0 0 6.5,8.0000016 Z" style="fill:#f8bb88"/>
 <path d="M 6.5 8 A 6.5 6.5 0 0 0 0 14.5 A 6.5 6.5 0 0 0 0.0234375 14.970703 A 6.5 6.5 0 0 1 6.5 9 A 6.5 6.5 0 0 1 12.976562 15.029297 A 6.5 6.5 0 0 0 13 14.5 A 6.5 6.5 0 0 0 6.5 8 z" style="fill:#ffffff;opacity:.1"/>
 <path d="m6.499999 12.000001a3.4999999 3.4999999 0 0 0 -3.499999 3.5 3.4999999 3.4999999 0 0 0 3.499999 3.5 3.4999999 3.4999999 0 0 0 3.500001 -3.5 3.4999999 3.4999999 0 0 0 -3.500001 -3.5z" style="opacity:.1"/>
 <path d="m6.499999 11.000001a3.4999999 3.4999999 0 0 0 -3.499999 3.5 3.4999999 3.4999999 0 0 0 3.499999 3.5 3.4999999 3.4999999 0 0 0 3.500001 -3.5 3.4999999 3.4999999 0 0 0 -3.500001 -3.5z" style="fill:#986135"/>
 <path d="M 25.5,8.0000016 A 6.5,6.5 0 0 0 19,14.5 6.5,6.5 0 0 0 25.5,21 6.5,6.5 0 0 0 32,14.5 6.5,6.5 0 0 0 25.5,8.0000016 Z" style="fill:#f8bb88"/>
 <path d="M 25.5 8 A 6.5 6.5 0 0 0 19 14.5 A 6.5 6.5 0 0 0 19.023438 14.970703 A 6.5 6.5 0 0 1 25.5 9 A 6.5 6.5 0 0 1 31.976562 15.029297 A 6.5 6.5 0 0 0 32 14.5 A 6.5 6.5 0 0 0 25.5 8 z" style="fill:#ffffff;opacity:.1"/>
 <path d="m25.499999 12.000001a3.4999999 3.4999999 0 0 0 -3.499999 3.5 3.4999999 3.4999999 0 0 0 3.499999 3.5 3.4999999 3.4999999 0 0 0 3.500001 -3.5 3.4999999 3.4999999 0 0 0 -3.500001 -3.5z" style="opacity:.1"/>
 <path d="m25.499999 11.000001a3.4999999 3.4999999 0 0 0 -3.499999 3.5 3.4999999 3.4999999 0 0 0 3.499999 3.5 3.4999999 3.4999999 0 0 0 3.500001 -3.5 3.4999999 3.4999999 0 0 0 -3.500001 -3.5z" style="fill:#986135"/>
 <path d="m16 4.9999998a11 11 0 0 1 0.84421 0.035386 11 11 0 0 0 -0.84421 -0.035386za11 11 0 0 0 -9.6717601 5.7818252 11 11 0 0 1 9.6717601 -5.7818252zm1.372473 0.099839a11 11 0 0 1 0.576287 0.078355 11 11 0 0 0 -0.576287 -0.078355zm1.02114 0.1781939a11 11 0 0 1 0.635684 0.1516544 11 11 0 0 0 -0.635684 -0.1516544zm1.022403 0.2805606a11 11 0 0 1 0.655906 0.2287457 11 11 0 0 0 -0.655906 -0.2287455zm0.974379 0.3702896a11 11 0 0 1 0.698874 0.3247932 11 11 0 0 0 -0.698874 -0.3247932zm0.903608 0.4423254a11 11 0 0 1 0.743107 0.439798 11 11 0 0 0 -0.743107 -0.4397978zm0.930148 0.5737589a11 11 0 0 1 0.706456 0.5206805 11 11 0 0 0 -0.706456 -0.5206805zm0.832834 0.6318937a11 11 0 0 1 0.693819 0.6255746 11 11 0 0 0 -0.693819 -0.6255746zm0.792394 0.7317324a11 11 0 0 1 0.645796 0.712776 11 11 0 0 0 -0.645796 -0.712776zm-13.349379 0.5737595a5.5000001 5.5000001 0 0 0 -4.1995634 1.9474962 11 11 0 0 0 -0.0012618 0.001261 11 11 0 0 0 -1.2991748 5.168858 11 11 0 0 0 11 11.000032 11 11 0 0 0 11 -11 11 11 0 0 0 -1.281479 -5.138557 5.5000001 5.5000001 0 0 0 -0.001295 -0.002523 5.5000001 5.5000001 0 0 0 -4.217225 -1.9765672 5.5000001 5.5000001 0 0 0 -5.500001 5.5000002 5.5000001 5.5000001 0 0 0 0.01643 0.323529h-0.02781a5.5000001 5.5000001 0 0 0 0.01138 -0.323529 5.5000001 5.5000001 0 0 0 -5.5 -5.5000002zm15.217257 1.9765632a11 11 0 0 0 -0.551011 -0.9288837 11 11 0 0 1 0.551011 0.9288837zm-1.165212-1.7629833a11 11 0 0 1 0.604091 0.8176701 11 11 0 0 0 -0.604091 -0.8176701z" style="fill:#f59d56"/>
 <path d="M 16,5.9999998 A 11,11 0 0 0 6.2991728,11.831112 5.5000001,5.5000001 0 0 1 10.5,9.8823528 5.5000001,5.5000001 0 0 1 16,15.382353 5.5000001,5.5000001 0 0 1 21.500001,9.8823528 5.5000001,5.5000001 0 0 1 25.718521,11.861443 11,11 0 0 0 16,5.9999998 Z m 0,9.3823532 a 5.5000001,5.5000001 0 0 1 -0.01137,0.323529 l 0.02781,0 A 5.5000001,5.5000001 0 0 1 16,15.382353 Z" style="opacity:.1"/>
 <path d="M 16,4.9999998 A 11,11 0 0 0 6.2991728,10.831112 5.5000001,5.5000001 0 0 1 10.5,8.8823528 5.5000001,5.5000001 0 0 1 16,14.382353 5.5000001,5.5000001 0 0 1 21.500001,8.8823528 5.5000001,5.5000001 0 0 1 25.718521,10.861443 11,11 0 0 0 16,4.9999998 Z m 0,9.3823532 a 5.5000001,5.5000001 0 0 1 -0.01137,0.323529 l 0.02781,0 A 5.5000001,5.5000001 0 0 1 16,14.382353 Z" style="fill:#986135"/>
 <circle cx="12" cy="17" r="2" style="opacity:.1"/>
 <circle cx="12" cy="16" r="2" style="fill:#3f3f3f"/>
 <circle cx="20" cy="17" r="2" style="opacity:.1"/>
 <circle cx="20" cy="16" r="2" style="fill:#3f3f3f"/>
 <path d="m11 23s2.333333 2 5 2 5-2 5-2" style="fill:none;opacity:.1;stroke-linecap:round;stroke-linejoin:round;stroke-width:2;stroke:#000000"/>
 <path d="m11 22s2.333333 2 5 2 5-2 5-2" style="fill:none;stroke-linecap:round;stroke-linejoin:round;stroke-width:2;stroke:#3f3f3f"/>
 <path d="M 16 5 A 11 11 0 0 0 6.2988281 10.832031 A 5.5000001 5.5000001 0 0 1 7.9765625 9.4980469 A 11 11 0 0 1 16 6 A 11 11 0 0 1 24.027344 9.5058594 A 5.5000001 5.5000001 0 0 1 25.71875 10.861328 A 11 11 0 0 0 16 5 z" style="fill:#ffffff;opacity:.1"/>
</svg>

<svg xmlns="http://www.w3.org/2000/svg" width="32" height="32" version="1.1" viewBox="0 0 32 32">
 <path style="opacity:0.2" d="M 16,5.9999998 A 11,11 0 0 1 16.84421,6.0353858 11,11 0 0 0 16,5.9999998 Z m 0,0 A 11,11 0 0 0 6.3282399,11.781825 11,11 0 0 1 16,5.9999998 Z m 1.372473,0.099839 a 11,11 0 0 1 0.576287,0.078355 11,11 0 0 0 -0.576287,-0.078355 z m 1.02114,0.1781939 a 11,11 0 0 1 0.635684,0.1516544 11,11 0 0 0 -0.635684,-0.1516544 z m 1.022403,0.2805606 A 11,11 0 0 1 20.071922,6.787339 11,11 0 0 0 19.416016,6.5585935 Z m 0.974379,0.3702896 a 11,11 0 0 1 0.698874,0.3247932 11,11 0 0 0 -0.698874,-0.3247932 z m 0.903608,0.4423254 a 11,11 0 0 1 0.743107,0.439798 11,11 0 0 0 -0.743107,-0.4397978 z m 0.930148,0.5737589 a 11,11 0 0 1 0.706456,0.5206805 11,11 0 0 0 -0.706456,-0.5206805 z m 0.832834,0.6318937 a 11,11 0 0 1 0.693819,0.6255746 11,11 0 0 0 -0.693819,-0.6255746 z m 0.792394,0.7317324 A 11,11 0 0 1 24.495175,10.021369 11,11 0 0 0 23.849379,9.3085933 Z M 10.5,9.8823528 A 5.5000001,5.5000001 0 0 0 6.3004366,11.829849 11,11 0 0 0 6.2991748,11.83111 11,11 0 0 0 5,16.999968 11,11 0 0 0 16,28 11,11 0 0 0 27,17 11,11 0 0 0 25.718521,11.861443 5.5000001,5.5000001 0 0 0 25.717226,11.85892 5.5000001,5.5000001 0 0 0 21.500001,9.8823528 5.5000001,5.5000001 0 0 0 16,15.382353 a 5.5000001,5.5000001 0 0 0 0.01643,0.323529 l -0.02781,0 A 5.5000001,5.5000001 0 0 0 16,15.382353 5.5000001,5.5000001 0 0 0 10.5,9.8823528 Z m 15.217257,1.9765632 a 11,11 0 0 0 -0.551011,-0.928884 11,11 0 0 1 0.551011,0.928884 z m -1.165212,-1.762983 a 11,11 0 0 1 0.604091,0.81767 11,11 0 0 0 -0.604091,-0.81767 z"/>
 <path style="opacity:0.2" d="M 25.5,9.0000016 A 6.5,6.5 0 0 0 19,15.5 6.5,6.5 0 0 0 25.5,22 6.5,6.5 0 0 0 32,15.5 6.5,6.5 0 0 0 25.5,9.0000016 Z"/>
 <path style="opacity:0.2" d="M 6.5,9.0000016 A 6.5,6.5 0 0 0 0,15.5 6.5,6.5 0 0 0 6.5,22 6.5,6.5 0 0 0 13,15.5 6.5,6.5 0 0 0 6.5,9.0000016 Z"/>
 <path style="fill:#f8bb88" d="M 6.5,8.0000016 A 6.5,6.5 0 0 0 0,14.5 6.5,6.5 0 0 0 6.5,21 6.5,6.5 0 0 0 13,14.5 6.5,6.5 0 0 0 6.5,8.0000016 Z"/>
 <path style="fill:#ffffff;opacity:0.1" d="M 6.5 8 A 6.5 6.5 0 0 0 0 14.5 A 6.5 6.5 0 0 0 0.0234375 14.970703 A 6.5 6.5 0 0 1 6.5 9 A 6.5 6.5 0 0 1 12.976562 15.029297 A 6.5 6.5 0 0 0 13 14.5 A 6.5 6.5 0 0 0 6.5 8 z"/>
 <path style="opacity:0.1" d="m 6.499999,12.000001 a 3.4999999,3.4999999 0 0 0 -3.499999,3.5 3.4999999,3.4999999 0 0 0 3.499999,3.5 3.4999999,3.4999999 0 0 0 3.500001,-3.5 3.4999999,3.4999999 0 0 0 -3.500001,-3.5 z"/>
 <path style="fill:#986135" d="m 6.499999,11.000001 a 3.4999999,3.4999999 0 0 0 -3.499999,3.5 3.4999999,3.4999999 0 0 0 3.499999,3.5 3.4999999,3.4999999 0 0 0 3.500001,-3.5 3.4999999,3.4999999 0 0 0 -3.500001,-3.5 z"/>
 <path style="fill:#f8bb88" d="M 25.5,8.0000016 A 6.5,6.5 0 0 0 19,14.5 6.5,6.5 0 0 0 25.5,21 6.5,6.5 0 0 0 32,14.5 6.5,6.5 0 0 0 25.5,8.0000016 Z"/>
 <path style="fill:#ffffff;opacity:0.1" d="M 25.5 8 A 6.5 6.5 0 0 0 19 14.5 A 6.5 6.5 0 0 0 19.023438 14.970703 A 6.5 6.5 0 0 1 25.5 9 A 6.5 6.5 0 0 1 31.976562 15.029297 A 6.5 6.5 0 0 0 32 14.5 A 6.5 6.5 0 0 0 25.5 8 z"/>
 <path style="opacity:0.1" d="m 25.499999,12.000001 a 3.4999999,3.4999999 0 0 0 -3.499999,3.5 3.4999999,3.4999999 0 0 0 3.499999,3.5 3.4999999,3.4999999 0 0 0 3.500001,-3.5 3.4999999,3.4999999 0 0 0 -3.500001,-3.5 z"/>
 <path style="fill:#986135" d="m 25.499999,11.000001 a 3.4999999,3.4999999 0 0 0 -3.499999,3.5 3.4999999,3.4999999 0 0 0 3.499999,3.5 3.4999999,3.4999999 0 0 0 3.500001,-3.5 3.4999999,3.4999999 0 0 0 -3.500001,-3.5 z"/>
 <path style="fill:#f59d56" d="M 16,4.9999998 A 11,11 0 0 1 16.84421,5.0353858 11,11 0 0 0 16,4.9999998 Z m 0,0 A 11,11 0 0 0 6.3282399,10.781825 11,11 0 0 1 16,4.9999998 Z m 1.372473,0.099839 a 11,11 0 0 1 0.576287,0.078355 11,11 0 0 0 -0.576287,-0.078355 z m 1.02114,0.1781939 a 11,11 0 0 1 0.635684,0.1516544 11,11 0 0 0 -0.635684,-0.1516544 z m 1.022403,0.2805606 A 11,11 0 0 1 20.071922,5.787339 11,11 0 0 0 19.416016,5.5585935 Z m 0.974379,0.3702896 a 11,11 0 0 1 0.698874,0.3247932 11,11 0 0 0 -0.698874,-0.3247932 z m 0.903608,0.4423254 A 11,11 0 0 1 22.03711,6.8110063 11,11 0 0 0 21.294003,6.3712085 Z m 0.930148,0.5737589 a 11,11 0 0 1 0.706456,0.5206805 11,11 0 0 0 -0.706456,-0.5206805 z m 0.832834,0.6318937 a 11,11 0 0 1 0.693819,0.6255746 11,11 0 0 0 -0.693819,-0.6255746 z m 0.792394,0.7317324 a 11,11 0 0 1 0.645796,0.712776 11,11 0 0 0 -0.645796,-0.712776 z M 10.5,8.8823528 A 5.5000001,5.5000001 0 0 0 6.3004366,10.829849 11,11 0 0 0 6.2991748,10.83111 11,11 0 0 0 5,15.999968 11,11 0 0 0 16,27 11,11 0 0 0 27,16 11,11 0 0 0 25.718521,10.861443 5.5000001,5.5000001 0 0 0 25.717226,10.85892 5.5000001,5.5000001 0 0 0 21.500001,8.8823528 5.5000001,5.5000001 0 0 0 16,14.382353 a 5.5000001,5.5000001 0 0 0 0.01643,0.323529 l -0.02781,0 A 5.5000001,5.5000001 0 0 0 16,14.382353 5.5000001,5.5000001 0 0 0 10.5,8.8823528 Z M 25.717257,10.858916 A 11,11 0 0 0 25.166246,9.9300323 11,11 0 0 1 25.717257,10.858916 Z M 24.552045,9.0959327 a 11,11 0 0 1 0.604091,0.8176701 11,11 0 0 0 -0.604091,-0.8176701 z"/>
 <path style="opacity:0.1" d="M 16,5.9999998 A 11,11 0 0 0 6.2991728,11.831112 5.5000001,5.5000001 0 0 1 10.5,9.8823528 5.5000001,5.5000001 0 0 1 16,15.382353 5.5000001,5.5000001 0 0 1 21.500001,9.8823528 5.5000001,5.5000001 0 0 1 25.718521,11.861443 11,11 0 0 0 16,5.9999998 Z m 0,9.3823532 a 5.5000001,5.5000001 0 0 1 -0.01137,0.323529 l 0.02781,0 A 5.5000001,5.5000001 0 0 1 16,15.382353 Z"/>
 <path style="fill:#986135" d="M 16,4.9999998 A 11,11 0 0 0 6.2991728,10.831112 5.5000001,5.5000001 0 0 1 10.5,8.8823528 5.5000001,5.5000001 0 0 1 16,14.382353 5.5000001,5.5000001 0 0 1 21.500001,8.8823528 5.5000001,5.5000001 0 0 1 25.718521,10.861443 11,11 0 0 0 16,4.9999998 Z m 0,9.3823532 a 5.5000001,5.5000001 0 0 1 -0.01137,0.323529 l 0.02781,0 A 5.5000001,5.5000001 0 0 1 16,14.382353 Z"/>
 <circle style="opacity:0.1" cx="12" cy="17" r="2"/>
 <circle style="fill:#3f3f3f" cx="12" cy="16" r="2"/>
 <circle style="opacity:0.1" cx="20" cy="17" r="2"/>
 <circle style="fill:#3f3f3f" cx="20" cy="16" r="2"/>
 <path style="opacity:0.1;fill:none;stroke:#000000;stroke-width:2;stroke-linecap:round;stroke-linejoin:round" d="m 11,23 c 0,0 2.333333,2 5,2 2.666667,0 5,-2 5,-2"/>
 <path style="fill:none;stroke:#3f3f3f;stroke-width:2;stroke-linecap:round;stroke-linejoin:round" d="m 11,22 c 0,0 2.333333,2 5,2 2.666667,0 5,-2 5,-2"/>
 <path style="opacity:0.1;fill:#ffffff" d="M 16 5 A 11 11 0 0 0 6.2988281 10.832031 A 5.5000001 5.5000001 0 0 1 7.9765625 9.4980469 A 11 11 0 0 1 16 6 A 11 11 0 0 1 24.027344 9.5058594 A 5.5000001 5.5000001 0 0 1 25.71875 10.861328 A 11 11 0 0 0 16 5 z"/>
</svg>
